X:1
Z:EIGHTH or JANUARY E] D
%%score ( 1 2 )
L:1/8
M:4/4
I:linebreak $
K:D
V:1 treble nm="Voice" snm="Voice"
V:2 treble 
V:1
 de | fefa fedf | efed B2 cd | dBAF D2 de ||$ [GB]2 e4 =ffa | e=fed B2 =cd | e2 [=Fe]2 e=cBA | %7
 dBAE DE |$ F2 A2 A2 F2 | F2 A2 A2 AB | AFEF D2 DE |$ =F2 A2 A2 F2 | ABA=F EDDE | %13
 A2 [=F=fg]2 E2 F2 |] %14
V:2
 x2 | x8 | x8 | x8 ||$ x9 | x8 | x2 =F x5 | x6 |$ x8 | x8 | x8 |$ x8 | x8 | x8 |] %14
